X: 13
T: Aunt Mary's Canadian Jig $1(J-36)
I: Aunt Mary's Canadian Jig	J-36	D	jig
M: 6/8
R: jig
K: D
z2A| "D"f2f fga| d2d dcB| ABA "B7"AGF| "Em"E2E E2A|
   "A7"e2e efg| e2d c2B| ABA ABA|1 "D"F3 :|2 "D"d3 |]
|:z2A| "D"ABA faf| e2d d2z| AFA "B7"BcB| "Em"A2G G2z|
   "A7"GFG efe| d2c c2B|1 ABA ABA| "D"F3  :|2 "A7"ABA ABc| "D"d3 |]
%%scale .5
%%text 08/29/98 

#include "LeftHeader.h"
% ---------- set 8 ----------
% Hundred Pipers (A) / Mr Charles Graham's... (Am) / Fair Jenny's (D)
%%text Set 8
%%vskip -1cm
%%scale .6
